X:1
T:Going to a Wedding
T:A Wedding Song for Chaya and Benjamin
C:Robbie Wedeen (Dec 30, 2001)
%%staffsep 35
M:4/4
L:1/8
N:Handed out at klezmer session at NEFFA (New England Folk Festival) April 21, 2002
Z:John Chambers <jc:trillian.mit.edu> 2002-4-22 from handwritten MS
N:Robbie, Chaya and Benjamin would probably be pleased to hear that you've sung
N:their song at your wedding.  Here's the contact info for the composer:
N:Robbie Wedeen, 574 S. Forest Drive, Teaneck NJ (USA) 07666 201-692-0836 rwedeen:i-opener.net
K:Am
[| "Am"cc2B A2A2 \
w: Hap-py the bride-groom,
| "E7"BB2^G E4 \
w: Joy-ful the bride,
| BB2B c2B2 \
w: Dear friends and fami-ly
| "Am"Ac2B A4 ||
w: Close by their side
|| "Dm"dd2f a2f2 \
w: Where are they head-ing?
| "Am"cc2d e2c2 \
w: Going to their wed-ding.
| "E7"BB2B ed cB |
w: Cha-ya and Ben-ja-min,*
| "Am"A(c2B) A2(Bc) \
w: Hul-yaa* chai chai.
|| "Dm"dd2f a2f2 \
w: Going to their wed-ding,
| "Am"cc2d e2c2 |
w: That's where they're head-ing.
| "E7"BB2B ed (cB) \
w: Cha-ya and Ben-ja-min,*
| "Am"A(c2B) A2A2 \
w: Hul-yaa* chai chai.
[| "A7"ee2e a2g2 |
w: What do we wish them?
| "Dm"gf2e g2f2 \
w: True love and glad-ness,
| "G7"dd2d g2f2 \
w: Strength in the hard times
| "C"fe2^d f2e2 |
w: to over-come sad-ness.
|"E7"BB2B e2d2 \
w: Kind-ness and laugh-ter,
| "Am"AA2c e2c2 \
w: Love ev-er af-ter,
| "E7"BB2B (ed)(cB) |
w: Plea-sure in liv-*ing,*
| "Am"Ac2B A2A2 \
w: Hap-pi-ness giv-ing.
|| "A7"ee2e a2g2 \
w: What do we wish them?
| "Dm"gf2e g2f2 |
w: True love and glad-ness,
| "G7"dd2d g2f2 \
w: Strength in the hard times
| "C"fe2^d f2e2 \
w: to over-come sad-ness,
|"E7"BB2B e2d2 |
w: Kind-ness and laugh-ter
| "Am"AA2c e2c2 \
w: Love ev-er af-ter,
| "E7"BB2B (ed)cB \
w: Hav-ing and hold-*ing a
| "Am"A2EE A2A2 |]
w: Good life un-fold-ing.

